X:1
T:Title
%%score { ( 1 3 ) | ( 2 4 ) }
L:1/8
M:6/8
K:Eb
V:1 treble nm="Grand Piano"
V:3 treble 
V:2 bass 
V:4 bass 
V:1
 z3 z2[Q:1/4=100] E | G2 G G2 E | [CEA]2 [CEA] [CEA]2 [Ec] | B2 B G2 E |[M:5/8] [DF]-[DF]- [DF]3 | %5
[M:1/8] E |[M:3/4] G2 G G2 E | [CEA]2 [CEA] [CEA]2 [Ec] | [EB]2 [EB][FA] [EG][DF] | %9
[M:5/8] E-E- E3 |[M:1/8] B |[M:3/4] e4 z2 | [GB]4 z2 | [DF]2 [DF][DF] E[B,DF] |[M:5/8] [E-G]3 E2 | %15
[M:1/8] B |[M:3/4] e2- [B,e] B2 [Ac] | [GB]4 z2 | [A,CF]2 [CFA] [B,EG]2 [A,DF] | %19
[M:5/8] [G,E]-[G,E]- [G,E]3 |] %20
V:2
 z3 z2 [E,G,] | [E,B,E]2 [E,B,E] [E,B,E]2 [E,G,] | A,,2 A,, A,,2 [A,,A,] | %3
 [E,G,E]2 [E,G,E] [E,B,E]2 [E,G,] |[M:5/8] [B,,B,]-[B,,B,]- [B,,B,]3 |[M:1/8] [E,G,] | %6
[M:3/4] [E,B,E]2 [E,B,E] [E,B,E]2 [E,G,] | A,,2 A,, A,,2 [A,,A,] | %8
 [B,,G,]2 [B,,G,] [B,,B,]2 [B,,A,] |[M:5/8] [E,G,]-[E,G,]- [E,G,]3 |[M:1/8] [E,G,E] | %11
[M:3/4] [E,B,]2 E, [E,E]2 [E,E] | [E,E]2 E, [E,B,E]2 [E,G,] | [B,,B,]2 .[B,,B,]2 CB,, | %14
[M:5/8] E,2 E, [E,G,]2 |[M:1/8] [E,G,E] |[M:3/4] [E,B,]2 E, [E,E]2 [E,E] | [E,E]2 E, E,2 G,, | %18
 A,,2 A,, B,,2 B,, |[M:5/8] E,-E,- E,3 |] %20
V:3
 x6 | x6 | x6 | x6 |[M:5/8] x5 |[M:1/8] x |[M:3/4] x6 | x6 | x6 |[M:5/8] x5 |[M:1/8] x | %11
[M:3/4] G2- [B,G-] [GB]2 [Ac] | z2 E G2 E | x6 |[M:5/8] B,2 B, B2 |[M:1/8] x |[M:3/4] G6 | %17
 z2 E [B,EG]2 [B,E] | x6 |[M:5/8] x5 |] %20
V:4
 x6 | x6 | x6 | x6 |[M:5/8] x5 |[M:1/8] x |[M:3/4] x6 | x6 | x6 |[M:5/8] x5 |[M:1/8] x | %11
[M:3/4] x6 | x6 | z2 z .[B,,B,]3 |[M:5/8] x5 |[M:1/8] x |[M:3/4] x6 | x6 | x6 |[M:5/8] x5 |] %20

